X:13
T:Tierbärgli-Jodel  BbEb
T:Emil Wallimann  (* 24.2.1957)
T:Dirigenten-Notiz  Edi Gasser
C:Unterwalden (CH)
%%partsbox
%P:ABAC
M:3/4
R:Naturjodel
L:1/8
K:Bb
[P:A] d>e | d2c2c>d | c2 B2 c/B/A/G/ | F>G F>G FA | BFd2d>e | d2c2 (3cfd | 
c2B2c/B/A/G/ | F>G F>G Ac | B4d>e | d2c2c>d | c2B2 c/B/A/G/ | 
F>G F>G FA | BFd2d>e | d2c2 (3cfd | c2B2 c/B/A/G/ | F>G F>G Ac | B4 || 
Q:1/4=60
L:1/8
M:3/4
[P:B]  d>B | cC/D/ EC/D/ E/F/A/c/ | BD/E/ FD/E/ F/B/d/B/ | cc/B/ AA/G/ FE | D/B,/D/G/F2d>B | 
cC/D/ EC/D/ E/F/A/c/ | BD/E/ FD/E/ F/B/c/d/ | ee/d/ cc/B/ A/F/c/A/ | B4 || 
K:Eb
Q:1/4=100
M:C
L:1/4
[P:C] 
B,/B,/ | E>BGe | e>dcB | A>DDB | A3B,/B,/ | D>FFd | d>cBA | GEEc | B3 B,/B,/ | 
E>BGe | e>dcB | A>BcB | A>c e/e/d/c/ | c>BBE | ccBD | E>GcB | e3z || 
K:Bb
L:1/8
M:3/4
[P:D]
d>B | c2CDE2 | CD EF Ac | B2DEF2 | DE FB cd | e2edc2 | cBA2c2 | 
BA Bc (d2 | d2)d3B | c2 f=ef2 | f=e f_e dc | B2d^cd2 | dc Bd cB | Ac e3d | 
c2cB Ac | (B6 | B2)d3B | c2CDE2 | CD EF Ac | B2DEF2 | DE FB cd | e2edc2 | 
cBA2c2 | BA Bc (d2 | d2)d3B | c2f=ef2 | f=e f_e dc | B2d^cd2 | dc Bd cB | 
Ace3d | c2cB Ac | (B6 | B2)z2d>e | d2c2 (3cfd | c2B2cd | e3c dc | B4 |]
W:
W:notiert Edi Gasser. Angaben Emil Wallimann
W:UJV-Naturjodelsammlung: Code-Nr: 23-10
W:http://www.naturjodler.ch/code 23-1.htm  (with AUDIO)
%May 25, 2018

